icons/kops.svg

<?xml version="1.0" encoding="UTF-8"?>
<svg width="512px" height="228px" viewBox="0 0 512 228" version="1.1" xmlns="http://www.w3.org/2000/svg" xmlns:xlink="http://www.w3.org/1999/xlink" preserveAspectRatio="xMidYMid">
    <defs>
        <linearGradient x1="88.2351222%" y1="153.238579%" x2="16.2897271%" y2="-50.2786784%" id="linearGradient-1">
            <stop stop-color="#FFFFFF" offset="0%"></stop>
            <stop stop-color="#FFFFFF" stop-opacity="0.8629" offset="13.71%"></stop>
            <stop stop-color="#FFFFFF" stop-opacity="0" offset="100%"></stop>
        </linearGradient>
        <linearGradient x1="69.6286248%" y1="118.972808%" x2="44.7720663%" y2="24.2627264%" id="linearGradient-2">
            <stop stop-color="#FFFFFF" offset="0%"></stop>
            <stop stop-color="#FFFFFF" stop-opacity="0.8629" offset="13.71%"></stop>
            <stop stop-color="#FFFFFF" stop-opacity="0" offset="100%"></stop>
        </linearGradient>
        <linearGradient x1="98.4090949%" y1="199.021201%" x2="-30.581685%" y2="-165.517986%" id="linearGradient-3">
            <stop stop-color="#FFFFFF" offset="0%"></stop>
            <stop stop-color="#FFFFFF" stop-opacity="0.8629" offset="13.71%"></stop>
            <stop stop-color="#FFFFFF" stop-opacity="0" offset="100%"></stop>
        </linearGradient>
    </defs>
		<g fill-rule="nonzero">
				<path d="M199.444343,159.257943 C196.313492,153.907445 189.572159,152.017361 184.114749,154.841208 L168.297676,137.007522 C170.802749,129.723782 172.172006,121.911369 172.172006,113.758602 C172.172006,105.774541 170.844925,98.0886559 168.425186,90.9128092 L181.822519,75.0525793 C185.071071,76.4120276 188.849278,76.3051157 192.09881,74.3944337 C197.618994,71.1880582 199.4875,64.0749854 196.259546,58.5557824 C193.021783,53.0355985 185.920481,51.146495 180.388527,54.3950467 C177.139975,56.2841502 175.197906,59.5542805 174.77222,63.0362728 L154.6875,66.8792153 C144.305278,54.9050851 130.037937,46.4119663 113.816756,43.3546789 L106.194626,21.2101885 C111.23714,17.8341272 112.893783,11.0614069 109.78255,5.73248736 C106.544787,0.233881992 99.4425036,-1.6562023 93.9233005,1.59234943 C88.4031166,4.7987249 86.5238216,11.9323954 89.7615841,17.4525793 C90.6002048,18.8963801 91.7144423,20.0851617 92.9993465,20.9767479 L85.3566185,43.7372077 C69.6346875,47.113269 55.8548254,55.648564 45.8335534,67.474587 L23.3496913,63.2706943 C23.2437603,61.5296981 22.7768791,59.7887019 21.8421358,58.1752153 C18.6151626,52.6550314 11.5020898,50.7865257 5.98288674,54.0144797 C0.462702835,57.2414529 -1.40580291,64.3545257 1.82117027,69.8747096 C4.77252659,74.9270314 10.9724346,76.8808705 16.2160208,74.6935908 L31.9909174,92.7616981 C29.9527258,99.4069088 28.859086,106.456227 28.859086,113.760564 C28.859086,121.933928 30.2283427,129.769882 32.754994,137.072257 L16.5553925,156.031951 C13.2107182,154.439062 9.16670284,154.482219 5.74846529,156.477254 C0.206702835,159.726786 -1.64022437,166.8173 1.58674881,172.358081 C4.81372199,177.856687 11.9267948,179.746771 17.4469787,176.519798 C20.8760055,174.502204 22.8828101,170.999614 23.158427,167.304779 L47.946289,162.44274 C57.7664883,173.037805 70.7381358,180.658955 85.3880055,183.823154 L93.4779979,206.817054 C88.9553312,210.341223 87.5752852,216.710817 90.5482201,221.785698 C93.7751933,227.305882 100.888266,229.173407 106.419239,225.946434 C111.928634,222.719461 113.79714,215.606388 110.570166,210.065606 C109.731546,208.663982 108.637906,207.4752 107.38537,206.563016 L115.103622,183.930066 C130.061477,180.830602 143.320511,173.079982 153.288818,162.230878 L178.034504,167.008564 C178.258136,168.367031 178.671071,169.704901 179.425339,170.956457 C182.641523,176.477621 189.743806,178.345146 195.285569,175.118173 C200.803791,171.8912 202.661507,164.75753 199.444343,159.257943 Z M100.504756,166.455369 C71.3962814,166.455369 47.8079902,142.867077 47.8079902,113.759583 C47.8079902,84.6501272 71.3962814,61.061836 100.504756,61.061836 C129.603423,61.061836 153.202504,84.6501272 153.202504,113.759583 C153.202504,142.867077 129.603423,166.455369 100.504756,166.455369 Z" fill="#414042"></path>
				<path d="M90.6541511,117.835966 C90.0695687,115.860549 89.8469174,114.16271 89.9538293,112.728717 C90.0705496,111.12602 90.5903963,109.448779 91.4927718,107.771537 C92.415745,106.094296 93.4672086,104.734848 94.6452009,103.715752 L124.114626,78.4502192 C115.134029,72.463154 103.902396,69.8501885 92.4589021,72.038449 C69.4120362,76.4963801 54.3482507,98.7683801 58.7855841,121.804457 C58.7855841,121.804457 59.0827795,123.842648 60.1234538,126.944074 C60.1862277,127.133376 60.2499825,127.325621 60.3255074,127.516886 C60.4422277,127.856257 60.5697373,128.216227 60.6962661,128.578158 C61.1641281,129.76792 61.6310093,130.934143 62.1616454,132.081729 L62.2038216,132.059169 C65.1973542,138.301254 70.6969404,146.072472 80.6005113,151.295461 C80.7603887,151.358234 80.9192852,151.443568 81.0781818,151.528901 C81.5666415,151.78392 82.0551013,152.01638 82.5435611,152.249821 C82.8829327,152.397928 83.2223044,152.547997 83.5410783,152.696104 C83.6901664,152.758878 83.8382737,152.823614 83.9873618,152.907966 L83.9873618,152.887369 C91.4927718,156.072166 99.9751013,157.122648 108.563362,155.478756 C112.650534,154.69212 116.493477,153.313054 120.039224,151.507323 L94.3489864,123.842648 C92.4589021,121.870173 91.2161741,119.831982 90.6541511,117.835966 Z" fill="#414042"></path>
				<path d="M134.635147,88.4508935 L109.634442,109.025054 C108.711469,109.767552 107.85127,110.489453 107.044036,111.275108 C106.407469,111.869499 106.056327,112.69733 105.981783,113.759583 C105.897431,115.182786 106.193645,116.360779 106.958703,117.347507 C107.8395,118.471552 108.763454,119.556365 109.697216,120.554863 L131.43858,142.889637 C140.440756,133.29307 144.899668,119.641698 142.223929,105.735307 C140.983163,99.2578207 138.329983,93.3972843 134.635147,88.4508935 Z" fill="#27AAE1"></path>
				<path d="M94.2626722,123.864227 C92.3725879,121.870173 91.1308408,119.852579 90.5678369,117.835966 C89.9842354,115.882127 89.7615841,114.184288 89.8675151,112.740487 C89.9842354,111.147598 90.5040821,109.449759 91.4064576,107.793116 C92.3304116,106.095277 93.3808944,104.735828 94.5598676,103.73733 L124.029293,78.4717977 C115.048695,72.4847326 103.817063,69.8511693 92.3725879,72.0600276 C69.325722,76.4963801 54.2619366,98.7909395 58.6992699,121.827997 C58.6992699,121.827997 58.9964653,123.864227 60.0371396,126.965652 C60.1008944,127.134357 60.1646492,127.3472 60.2391933,127.538464 C60.3559136,127.877836 60.4834231,128.239767 60.6109327,128.579139 C61.0778139,129.789499 61.545676,130.956702 62.076312,132.104288 L62.1184883,132.06015 C62.5216147,132.910541 63.0954078,133.822725 63.6044653,134.715292 C75.7276837,133.399001 87.4055994,131.274495 98.403791,128.32412 L94.2626722,123.864227 Z" fill="url(#linearGradient-1)"></path>
				<path d="M168.339852,90.91379 L181.737186,75.0751387 C186.440327,68.5790161 189.55058,61.592472 191.482841,54.3528705 C188.053814,52.5481195 183.893078,52.2931004 180.305155,54.3950467 C177.055622,56.3057287 175.113553,59.5748782 174.688848,63.0568705 L154.603147,66.899813 C144.220925,54.9041042 129.953584,46.4119663 113.732404,43.3546789 L106.110274,21.2307862 C111.152787,17.8557057 112.809431,11.0820046 109.698197,5.75308506 C106.460435,0.232901149 99.3473618,-1.6356046 93.8379672,1.59136858 C88.3177833,4.81932261 86.4394691,11.9314146 89.6762507,17.4515985 C90.5148714,18.8953992 91.6300898,20.0841808 92.9140132,20.9973456 L85.2703044,43.7362268 C69.5483733,47.1122881 55.7685113,55.6475831 45.7482201,67.4942038 L23.264358,63.2903111 C23.158427,61.5502958 22.6915457,59.8083188 21.7568025,58.1732536 C18.5298293,52.6530697 11.4167565,50.8061425 5.89657257,54.0331157 C0.376388659,57.2600889 -1.49211709,64.3731617 1.73485609,69.871767 C4.68621241,74.9240889 10.8861205,76.8995065 16.1297067,74.7122268 L31.9046032,92.7587556 C29.8664116,99.4039663 28.7835611,106.453284 28.7835611,113.7792 C28.7835611,121.614173 30.0998523,129.129392 32.4352392,136.17871 C33.6877756,136.199307 34.9089251,136.305238 36.1722507,136.305238 C41.7454002,136.305238 47.2341971,136.113974 52.6690477,135.753024 C49.5695841,129.044058 47.7226569,121.655369 47.7226569,113.778219 C47.7226569,84.6687632 71.310948,61.0598743 100.419423,61.0598743 C126.322504,61.0598743 147.755883,79.8067249 152.182427,104.436671 C158.159684,100.382848 163.626902,96.0514452 168.467362,91.4022498 C168.404588,91.2541425 168.393799,91.0834759 168.339852,90.91379 Z" fill="url(#linearGradient-2)"></path>
				<path d="M134.549814,88.472472 L109.55009,109.046633 C108.626136,109.767552 107.766917,110.511031 106.959684,111.275108 C106.323117,111.891077 105.972956,112.69733 105.898412,113.781162 C105.813078,115.204365 106.110274,116.370587 106.875331,117.347507 C107.756128,118.495093 108.680082,119.576962 109.613845,120.554863 L112.840818,123.865208 C123.690902,120.108579 133.669017,115.522158 142.734948,110.320748 C142.607438,108.813192 142.437753,107.284058 142.140557,105.734326 C140.89881,99.2578207 138.244649,93.4198437 134.549814,88.472472 Z" fill="url(#linearGradient-3)"></path>
				<path d="M248.702274,114.0352 L269.042013,91.5925333 L290.687255,91.5925333 L267.088174,117.685897 L292.120266,154.055552 L271.259699,154.055552 L254.954166,130.850771 L244.923086,130.850771 L244.923086,154.055552 L226.801032,154.055552 L226.801032,61.486541 L244.923086,61.486541 L244.923086,114.0352 L248.702274,114.0352 Z M354.349845,98.1112153 C360.741017,104.247369 364.000358,112.33638 364.000358,122.380211 C364.000358,132.54861 360.741017,140.744533 354.349845,147.007215 C347.958672,153.269897 339.488113,156.39192 328.925415,156.39192 C318.361737,156.39192 309.891178,153.269897 303.372496,147.007215 C296.853814,140.744533 293.595454,132.54861 293.595454,122.380211 C293.595454,112.33638 296.853814,104.247369 303.234197,98.1112153 C309.762688,91.9976215 318.361737,88.8540199 328.924435,88.8540199 C339.488113,88.8550008 347.959653,91.9976215 354.349845,98.1112153 Z M328.926396,105.033024 C318.628527,105.033024 311.579209,111.933254 311.579209,122.380211 C311.579209,132.93212 318.628527,140.234495 328.926396,140.234495 C339.223285,140.234495 346.134304,132.93212 346.134304,122.380211 C346.134304,111.933254 339.223285,105.033024 328.926396,105.033024 Z M444.4795,122.50674 C444.4795,132.146464 441.612496,139.979476 436.006979,145.967522 C430.402442,151.828058 423.099086,154.842189 414.361737,154.842189 C406.930871,154.842189 400.805507,154.566572 395.720818,154.056533 L395.720818,184.163507 L377.598764,184.163507 L377.598764,92.655767 C393.108833,90.6803494 404.977032,89.6406559 413.182764,89.6406559 C432.876128,89.6396751 443.959653,102.29451 444.4795,122.50674 Z M426.878274,123.015798 C426.878274,110.76507 421.400266,104.628916 410.317722,104.628916 C406.145216,104.628916 401.325354,104.904533 395.720818,105.414572 L395.720818,138.663185 C400.28468,139.32133 405.49786,139.703859 411.495714,139.703859 C420.487101,139.703859 426.878274,132.400503 426.878274,123.015798 Z M458.619331,136.052181 C468.130565,139.703859 476.603086,141.529208 483.906442,141.529208 C491.072481,141.529208 494.595668,139.979476 494.595668,136.711307 C494.595668,133.843323 491.857155,132.400503 487.684649,131.487338 C485.465983,130.851752 484.298779,130.723261 481.293477,130.192625 L477.907607,129.535461 C463.183193,126.795966 456.389875,121.318939 456.389875,110.766051 C456.389875,97.7296674 466.952573,89.9162728 483.767163,89.9162728 C493.024358,89.9162728 501.761707,91.4660046 509.978228,94.6086253 L505.934212,108.281575 C495.90117,105.414572 488.332986,103.992349 483.119806,103.992349 C477.38776,103.992349 474.128419,106.072717 474.128419,109.342848 C474.128419,112.20887 476.208787,113.249545 479.861446,114.417729 C482.080113,114.949346 483.119806,115.074893 486.262427,115.713422 L489.903316,116.370587 C505.148557,119.491629 511.53973,123.929943 511.53973,135.012487 C511.53973,148.962035 500.594504,156.010372 483.247316,156.010372 C473.597783,156.010372 464.214059,154.184043 454.955883,150.532365 L458.619331,136.052181 Z" fill="#414042"></path>
		</g>
</svg>

<svg xmlns="http://www.w3.org/2000/svg" viewBox="0 0 511.54 227.529">
  <defs>
    <linearGradient id="a" x1="113.875" x2="67.288" y1="172.001" y2="40.216" gradientTransform="scale(1.02087 .97955)" gradientUnits="userSpaceOnUse">
      <stop offset="0%" stop-color="#FFF"/>
      <stop offset="13.71%" stop-color="#FFF" stop-opacity=".863"/>
      <stop offset="100%" stop-color="#FFF" stop-opacity="0"/>
    </linearGradient>
    <linearGradient id="b" x1="112.569" x2="72.429" y1="192.135" y2="39.192" gradientTransform="scale(1.18481 .84401)" gradientUnits="userSpaceOnUse">
      <stop offset="0%" stop-color="#FFF"/>
      <stop offset="13.71%" stop-color="#FFF" stop-opacity=".863"/>
      <stop offset="100%" stop-color="#FFF" stop-opacity="0"/>
    </linearGradient>
    <linearGradient id="c" x1="139.308" x2="92.724" y1="162.152" y2="30.501" gradientTransform="scale(1.02039 .98002)" gradientUnits="userSpaceOnUse">
      <stop offset="0%" stop-color="#FFF"/>
      <stop offset="13.71%" stop-color="#FFF" stop-opacity=".863"/>
      <stop offset="100%" stop-color="#FFF" stop-opacity="0"/>
    </linearGradient>
  </defs>
  <path fill="#414042" d="M199.444 159.258c-3.13-5.35-9.872-7.24-15.33-4.417l-15.816-17.833a71.32 71.32 0 0 0 3.874-23.25c0-7.983-1.327-15.67-3.747-22.845l13.398-15.86c3.248 1.359 7.026 1.252 10.276-.659 5.52-3.206 7.388-10.319 4.16-15.838-3.237-5.52-10.339-7.41-15.87-4.161-3.249 1.89-5.191 5.16-5.617 8.641l-20.084 3.843c-10.383-11.974-24.65-20.467-40.871-23.524l-7.622-22.145c5.042-3.376 6.699-10.149 3.588-15.478-3.238-5.498-10.34-7.388-15.86-4.14-5.52 3.207-7.4 10.34-4.161 15.86a11 11 0 0 0 3.237 3.525l-7.642 22.76C69.635 47.113 55.855 55.65 45.834 67.475L23.35 63.27c-.106-1.741-.573-3.482-1.508-5.096-3.227-5.52-10.34-7.388-15.86-4.16-5.52 3.226-7.388 10.34-4.16 15.86 2.95 5.052 9.15 7.006 14.394 4.819l15.775 18.068a71.49 71.49 0 0 0-3.132 20.999c0 8.173 1.37 16.009 3.896 23.311l-16.2 18.96a11.556 11.556 0 0 0-10.807.445c-5.541 3.25-7.388 10.34-4.161 15.881 3.227 5.499 10.34 7.389 15.86 4.162 3.429-2.018 5.436-5.52 5.711-9.215l24.788-4.862c9.82 10.595 22.792 18.216 37.442 21.38l8.09 22.994c-4.523 3.524-5.903 9.894-2.93 14.969 3.227 5.52 10.34 7.387 15.871 4.16 5.51-3.227 7.378-10.34 4.151-15.88a11.872 11.872 0 0 0-3.185-3.503l7.719-22.633c14.957-3.1 28.217-10.85 38.185-21.7l24.745 4.779c.224 1.358.637 2.696 1.391 3.947 3.217 5.522 10.319 7.39 15.86 4.162 5.519-3.227 7.377-10.36 4.16-15.86zm-98.94 7.197c-29.108 0-52.696-23.588-52.696-52.695 0-29.11 23.588-52.698 52.697-52.698 29.098 0 52.698 23.588 52.698 52.698 0 29.107-23.6 52.695-52.698 52.695z"/>
  <path fill="#414042" d="M90.654 117.836c-.584-1.975-.807-3.673-.7-5.107.117-1.603.636-3.28 1.539-4.957.923-1.678 1.974-3.037 3.152-4.056l29.47-25.266c-8.981-5.987-20.213-8.6-31.656-6.412-23.047 4.458-38.11 26.73-33.673 49.766 0 0 .297 2.039 1.337 5.14.063.19.127.382.203.573.116.34.244.7.37 1.061.468 1.19.935 2.356 1.466 3.504l.042-.023c2.993 6.242 8.493 14.013 18.397 19.236.16.063.318.149.477.234.489.255.977.487 1.466.72.339.149.678.299.997.447.15.063.297.128.446.212v-.02c7.506 3.184 15.988 4.235 24.576 2.59 4.088-.786 7.93-2.165 11.476-3.97l-25.69-27.665c-1.89-1.973-3.133-4.011-3.695-6.007z"/>
  <path fill="#27aae1" d="m134.635 88.45-25 20.575c-.924.743-1.784 1.464-2.591 2.25-.637.595-.988 1.422-1.062 2.485-.085 1.423.212 2.6.977 3.588a48.691 48.691 0 0 0 2.738 3.207l21.742 22.335c9.002-9.597 13.46-23.248 10.785-37.155-1.24-6.477-3.894-12.338-7.589-17.284z"/>
  <path fill="url(#a)" d="M94.263 123.864c-1.89-1.994-3.132-4.011-3.695-6.028-.584-1.954-.806-3.652-.7-5.096.116-1.592.636-3.29 1.538-4.947.924-1.698 1.975-3.057 3.154-4.056l29.47-25.265c-8.981-5.987-20.213-8.62-31.657-6.412-23.047 4.436-38.111 26.73-33.674 49.768 0 0 .297 2.036 1.338 5.138.064.168.128.381.202.572.117.34.244.702.372 1.041.467 1.21.935 2.378 1.465 3.525l.042-.044c.404.85.977 1.763 1.486 2.655 12.124-1.316 23.802-3.44 34.8-6.39z" style="fill:url(#a)"/>
  <path fill="url(#b)" d="m168.34 90.914 13.397-15.839c4.703-6.496 7.814-13.483 9.746-20.722-3.43-1.805-7.59-2.06-11.178.042-3.25 1.91-5.191 5.18-5.616 8.662L154.603 66.9c-10.382-11.996-24.65-20.488-40.87-23.545L106.11 21.23c5.043-3.375 6.7-10.149 3.588-15.478-3.238-5.52-10.35-7.389-15.86-4.162-5.52 3.228-7.399 10.34-4.162 15.86a11.319 11.319 0 0 0 3.238 3.546l-7.644 22.74c-15.722 3.375-29.501 11.91-39.522 23.757L23.264 63.29a11.653 11.653 0 0 0-1.507-5.117c-3.227-5.52-10.34-7.367-15.86-4.14-5.52 3.227-7.39 10.34-4.162 15.839 2.951 5.052 9.151 7.028 14.395 4.84L31.905 92.76c-2.039 6.645-3.121 13.694-3.121 21.02 0 7.835 1.316 15.35 3.651 22.4 1.253.02 2.474.126 3.737.126 5.573 0 11.062-.191 16.497-.552-3.1-6.709-4.946-14.098-4.946-21.975 0-29.11 23.588-52.718 52.696-52.718 25.904 0 47.337 18.747 51.763 43.377 5.978-4.054 11.445-8.386 16.285-13.035-.062-.148-.073-.319-.127-.488z" style="fill:url(#b)"/>
  <path fill="url(#c)" d="m134.55 88.472-25 20.575a35.777 35.777 0 0 0-2.59 2.228c-.637.616-.987 1.422-1.062 2.506-.085 1.423.212 2.59.977 3.567a39.423 39.423 0 0 0 2.739 3.207l3.227 3.31c10.85-3.756 20.828-8.343 29.894-13.544-.128-1.508-.297-3.037-.594-4.587-1.242-6.476-3.896-12.314-7.591-17.262z" style="fill:url(#c)"/>
  <path fill="#414042" d="m248.702 114.035 20.34-22.442h21.645l-23.599 26.093 25.032 36.37h-20.86l-16.306-23.205h-10.03v23.205H226.8v-92.57h18.122v52.55zM354.35 98.111c6.391 6.136 9.65 14.225 9.65 24.27 0 10.168-3.259 18.364-9.65 24.626-6.391 6.263-14.862 9.385-25.425 9.385s-19.034-3.122-25.553-9.385c-6.518-6.262-9.777-14.458-9.777-24.627 0-10.044 3.259-18.133 9.64-24.269 6.528-6.113 15.127-9.257 25.69-9.257 10.563.001 19.035 3.144 25.425 9.257zm-25.424 6.922c-10.297 0-17.347 6.9-17.347 17.347 0 10.552 7.05 17.854 17.347 17.854s17.208-7.302 17.208-17.854c0-10.447-6.91-17.347-17.208-17.347zm115.554 17.474c0 9.64-2.867 17.472-8.473 23.46-5.605 5.861-12.908 8.875-21.645 8.875-7.431 0-13.556-.275-18.641-.785v30.107h-18.122V92.656c15.51-1.976 27.378-3.015 35.584-3.015 19.693-.001 30.777 12.654 31.297 32.866zm-17.602.509c0-12.25-5.478-18.387-16.56-18.387-4.173 0-8.993.276-14.597.786v33.248c4.564.658 9.777 1.04 15.775 1.04 8.991 0 15.382-7.302 15.382-16.687zm31.741 13.036c9.512 3.652 17.984 5.477 25.287 5.477 7.166 0 10.69-1.55 10.69-4.818 0-2.868-2.739-4.31-6.911-5.224-2.219-.635-3.386-.764-6.392-1.294l-3.385-.658c-14.725-2.739-21.518-8.216-21.518-18.769 0-13.036 10.563-20.85 27.377-20.85 9.257 0 17.995 1.55 26.211 4.693l-4.044 13.673c-10.033-2.867-17.601-4.29-22.814-4.29-5.732 0-8.992 2.08-8.992 5.35 0 2.867 2.08 3.908 5.733 5.076 2.22.531 3.259.657 6.401 1.295l3.641.658c15.246 3.12 21.637 7.559 21.637 18.641 0 13.95-10.945 20.998-28.293 20.998-9.65 0-19.033-1.826-28.291-5.478z"/>
</svg>
